svg/24/currency-dollar.svg

<svg width="24" height="24" viewBox="0 0 24 24" fill="currentColor" xmlns="http://www.w3.org/2000/svg"><path fill-rule="evenodd" clip-rule="evenodd" d="M12.75 1.75C12.75 1.33579 12.4142 1 12 1C11.5858 1 11.25 1.33579 11.25 1.75V3.03339C8.16354 3.31236 5.99903 5.31201 5.98976 7.99C5.98976 11.118 8.71487 11.8615 11.25 12.4378V19.4533C7.96521 19.1182 6.98709 16.602 6.94976 16.49C6.80976 16.1 6.37976 15.9 5.98976 16.04C5.59976 16.18 5.39976 16.61 5.53976 17C5.59663 17.1611 6.88418 20.6101 11.25 20.9697V22.25C11.25 22.6642 11.5858 23 12 23C12.4142 23 12.75 22.6642 12.75 22.25V20.9656C15.785 20.6878 17.9898 18.7552 17.9898 16.25C17.9898 12.8216 15.2673 11.858 12.75 11.2555V4.53971C15.8783 4.87871 16.4765 7.27682 16.5094 7.40836L16.5098 7.41C16.5998 7.81 16.9998 8.06 17.3998 7.98C17.8098 7.89 18.0698 7.5 17.9798 7.09C17.6991 5.77071 16.2452 3.33959 12.75 3.03223V1.75ZM11.25 4.54085C9.03012 4.79113 7.48976 6.16736 7.48976 8C7.48976 9.86362 8.90565 10.3619 11.25 10.9108V4.54085ZM12.75 12.7909V19.4479C14.9311 19.2016 16.4898 17.9025 16.4898 16.24C16.4898 14.1232 15.1013 13.3949 12.75 12.7909Z"/></svg>

<svg xmlns="http://www.w3.org/2000/svg" width="24" height="24" fill="currentColor" viewBox="0 0 24 24">
  <path fill-rule="evenodd" d="M12.75 1.75a.75.75 0 0 0-1.5 0v1.283c-3.086.28-5.251 2.279-5.26 4.957 0 3.128 2.725 3.871 5.26 4.448v7.015c-3.285-.335-4.263-2.851-4.3-2.963a.75.75 0 1 0-1.41.51c.057.161 1.344 3.61 5.71 3.97v1.28a.75.75 0 0 0 1.5 0v-1.284c3.035-.278 5.24-2.21 5.24-4.716 0-3.428-2.723-4.392-5.24-4.995V4.54c3.128.339 3.727 2.737 3.76 2.868v.002c.09.4.49.65.89.57.41-.09.67-.48.58-.89-.28-1.32-1.735-3.75-5.23-4.058V1.75Zm-1.5 2.79C9.03 4.792 7.49 6.168 7.49 8c0 1.864 1.416 2.362 3.76 2.91V4.54Zm1.5 8.25v6.658c2.181-.246 3.74-1.546 3.74-3.208 0-2.117-1.389-2.845-3.74-3.45Z" clip-rule="evenodd"/>
</svg>
